packages/core/src/svgs/bico.svg

<svg width="24" height="24" viewBox="0 0 24 24" fill="none" xmlns="http://www.w3.org/2000/svg">
<g clip-path="url(#clip0_31_7000)">
<path d="M0 0H24V24H0V0Z" fill="url(#paint0_linear_31_7000)"/>
<path d="M14.2158 6C13.7132 5.71803 13.1464 5.57042 12.5701 5.57143H9.36011C9.57321 5.5686 9.78478 5.60785 9.98269 5.68692C10.1806 5.76599 10.361 5.88334 10.5134 6.03224C10.6659 6.18114 10.7875 6.35866 10.8713 6.55463C10.955 6.75061 10.9993 6.96118 11.0015 7.17429V12H12.5701C13.0636 12.0005 13.551 11.8906 13.9966 11.6786C14.4423 11.4665 14.8349 11.1575 15.1458 10.7743C15.4372 10.4142 15.6462 9.99464 15.758 9.54513C15.8699 9.09562 15.8819 8.62706 15.7933 8.17239C15.7046 7.71773 15.5175 7.28801 15.2449 6.91344C14.9724 6.53887 14.6211 6.22854 14.2158 6.00429V6Z" fill="#D85111"/>
<path d="M15.1715 10.7141C14.8377 11.1178 14.4186 11.4425 13.9443 11.6648C13.4701 11.8871 12.9524 12.0015 12.4286 11.9999H11.1429V7.17415C11.1429 6.29129 10.3329 5.57129 9.42864 5.57129C8.52007 5.57129 7.71436 6.29129 7.71436 7.17415V18.4284H13.4615C13.7486 18.4284 14.0186 18.4027 14.2844 18.3427C15.202 18.1684 16.031 17.6817 16.6303 16.9652C17.2295 16.2487 17.5621 15.3467 17.5715 14.4127C17.5595 13.633 17.328 12.8724 16.9035 12.2182C16.479 11.564 15.8787 11.0427 15.1715 10.7141Z" fill="white"/>
</g>
<defs>
<linearGradient id="paint0_linear_31_7000" x1="4.46571" y1="4.16143" x2="29.2071" y2="32.58" gradientUnits="userSpaceOnUse">
<stop stop-color="#1A1E21"/>
<stop offset="1" stop-color="#06060A"/>
</linearGradient>
<clipPath id="clip0_31_7000">
<rect width="24" height="24" fill="white"/>
</clipPath>
</defs>
</svg>

<svg xmlns="http://www.w3.org/2000/svg" width="24" height="24" fill="none" viewBox="0 0 24 24"><g clip-path="url(#a)"><path fill="url(#b)" d="M0 0h24v24H0z"/><path fill="#D85111" d="M14.216 6a3.35 3.35 0 0 0-1.646-.429H9.36a1.62 1.62 0 0 1 1.642 1.603V12h1.568a3.31 3.31 0 0 0 2.576-1.226 3.17 3.17 0 0 0-.93-4.77z"/><path fill="#fff" d="M15.172 10.714A3.54 3.54 0 0 1 12.429 12h-1.286V7.174c0-.883-.81-1.603-1.714-1.603-.909 0-1.715.72-1.715 1.603v11.254h5.747c.288 0 .558-.025.823-.085a4.04 4.04 0 0 0 3.287-3.93 4.15 4.15 0 0 0-2.4-3.699"/></g><defs><linearGradient id="b" x1="4.466" x2="29.207" y1="4.161" y2="32.58" gradientUnits="userSpaceOnUse"><stop stop-color="#1A1E21"/><stop offset="1" stop-color="#06060A"/></linearGradient><clipPath id="a"><path fill="#fff" d="M0 0h24v24H0z"/></clipPath></defs></svg>
